**kern	**kern
*staff2	*staff1
*clefG2	*clefG2
*k[b-e-]	*k[b-e-]
*M4/4	*M4/4
=129	=129
*	*^
1b- 1dd	(2bb-	1ff
.	4.ddd	.
.	8ccc)	.
=130	=130	=130
2.cc 2.ee-	(4.bb-	2.ff
.	8aa	.
.	4eee-')	.
4r	4r	4r
*clefF4	*	*
=131	=131	=131
1F 1e-	(2cc	1a
.	4.ee-	.
.	8dd)	.
=132	=132	=132
2.B- 2.d	(4.cc	2.f
.	8b-	.
.	4ff')	.
4r	4r	4r
*	*v	*v
=133	=133
1EE- [1BB-	(2G
.	4.B-
.	8G)
=134	=134
4DD 4BB-]	4F
(4D 4F	(4B- 4f
4C 4F	4A 4e-
4BB-) 4F	4B-) 4d
=135	=135
*^	*
(4.F	1FF	(4.A 4.c
8E)	.	8B-) 8d
(4.F	.	(4.A 4.c
8E)	.	8B-) 8d
*v	*v	*
=136	=136
(8.FL	4A 4c
16GJk	.
8.E-L	4r
16FJk	.
8.DL	2r
16E-Jk	.
8.CL	.
16DJk)	.
=	=
*-	*-
